assets/img/home/Buy-icon.svg

<?xml version="1.0" encoding="UTF-8"?>
<svg width="50px" height="53px" viewBox="0 0 50 53" version="1.1" xmlns="http://www.w3.org/2000/svg" xmlns:xlink="http://www.w3.org/1999/xlink">
    <!-- Generator: Sketch 52.3 (67297) - http://www.bohemiancoding.com/sketch -->
    <title>chart-icon</title>
    <desc>Created with Sketch.</desc>
    <g id="Temporary-Homepage-(Instapage)" stroke="none" stroke-width="1" fill="none" fill-rule="evenodd">
        <g id="Insta" transform="translate(-340.000000, -1125.000000)">
            <g id="Group-3" transform="translate(255.000000, 1125.000000)">
                <g id="Group-34">
                    <g id="chart-icon" transform="translate(85.000000, 0.000000)">
                        <path d="M22.5490196,1.96078431 C17.8155036,2.1623232 13.3480253,4.00304507 9.80392157,7.21306304 L22.5490196,20.5882353 L22.5490196,1.96078431 Z" id="Path"></path>
                        <path d="M1.96078431,26.9923 C1.96078431,31.0141652 3.12065343,34.8804502 5.32399324,38.2352941 L21.5686275,26.8663265 L7.71662746,12.745098 C3.99775668,16.611383 1.96078431,21.6358119 1.96078431,26.9923 Z" id="Path"></path>
                        <path d="M47.8493872,26.1399976 C47.8045504,25.8036753 47.7515615,25.4696684 47.6904205,25.1362404 C47.5570747,24.4086033 47.3876266,23.6965957 47.1890637,23.0245299 C47.1017193,22.7252551 47.0073874,22.4311902 46.9078148,22.1411773 C46.691783,21.5084746 46.4413958,20.8798239 46.164223,20.2679604 C46.0431054,19.9987868 45.9173295,19.7394539 45.7868952,19.4795422 C45.5015703,18.9139881 45.1836367,18.3507495 44.8424113,17.8037192 C44.6950905,17.5692777 44.5448581,17.3330995 44.3853091,17.1009735 C43.9951708,16.5307885 43.5718417,15.9721808 43.1281323,15.4436743 C42.9511143,15.2329664 42.7700203,15.0263105 42.5854325,14.8202335 C42.1778254,14.3727685 41.738192,13.9299345 41.2793429,13.5056242 C41.0778685,13.318071 40.8711535,13.1345698 40.6626915,12.9562785 C40.1904496,12.550492 39.6960804,12.1632293 39.1923944,11.8043311 C38.9647168,11.6399326 38.7370391,11.4819016 38.504703,11.3290805 C37.9544334,10.9649725 37.4029992,10.6361754 36.861464,10.348478 C36.6058362,10.2095497 36.3472968,10.0793044 36.0870105,9.95195344 C35.4237755,9.62952396 34.7325903,9.34008995 34.0355822,9.0894401 C33.747928,8.98524385 33.4579447,8.88567856 33.1656321,8.79537514 C32.4843459,8.58235171 31.7809325,8.4034815 31.073443,8.25760676 C30.7467751,8.19277354 30.416031,8.13257126 30.0829578,8.08163088 C29.3102511,7.9635418 28.503189,7.88655236 27.6833164,7.85703009 C27.5511353,7.85239914 27.4195364,7.84545273 27.286773,7.84313725 L27.286773,28.6980153 C27.286773,28.9833973 27.1476042,29.251992 26.912939,29.4163906 L9.80392157,41.4707382 C10.0962341,41.8603163 10.4153322,42.2545255 10.7757734,42.668995 C10.9539559,42.8733354 11.1362145,43.0794124 11.3242961,43.278543 C11.7342324,43.7167461 12.180271,44.1526337 12.6536776,44.5746285 C12.8598103,44.7575508 13.0700191,44.9387365 13.2813925,45.1147123 C13.8677645,45.5969094 14.4122111,46.0073268 14.943265,46.3668039 C15.134258,46.4941548 15.3304917,46.6151382 15.52789,46.7355428 L15.6583243,46.8165843 C16.2097585,47.1575376 16.777497,47.4724418 17.3446532,47.7578237 C17.6014456,47.8851747 17.8640611,48.0131045 18.1319172,48.1335091 C18.7089724,48.3934208 19.3273706,48.6319144 20.0232142,48.8686714 C20.3149444,48.9659213 20.6095861,49.06375 20.9077216,49.1488436 C21.6495666,49.3647613 22.343081,49.5314753 23.0301901,49.6565108 C23.3638456,49.7167131 23.7009949,49.765338 24.0404734,49.809332 C24.9610832,49.932052 25.8805284,49.9945697 26.7737703,49.9968852 C26.7871631,49.9968852 26.8209363,49.9992007 26.8343291,49.9992007 C27.2163152,50.0038316 27.5942252,49.9876233 27.9703883,49.9690995 C28.9736841,49.9158437 29.9857143,49.7884927 30.9785288,49.5934142 C31.4752272,49.4938489 31.9783308,49.3734443 32.5163722,49.2223598 C34.058874,48.7980495 35.5425639,48.2023943 36.9266812,47.4533391 C38.3148746,46.7019684 39.6302809,45.7867781 40.8362157,44.7268708 C41.5128435,44.133531 42.1504575,43.4985128 42.733918,42.839761 C43.8018486,41.6368733 44.7253699,40.3292104 45.4782784,38.9520834 C46.2300224,37.5795873 46.8286226,36.1052105 47.2595215,34.5706314 C47.4103361,34.0282321 47.5314537,33.5251957 47.6298617,33.0383677 C47.8260954,32.0554498 47.9542005,31.0493772 48.0089363,30.0479356 C48.0281521,29.6745657 48.0392157,29.2971437 48.0392157,28.9168275 L48.0386334,28.8566252 C48.0351396,27.9807979 47.9716694,27.0650287 47.8493872,26.1399976 Z" id="Path"></path>
                        <path d="M23.0019421,23.2581794 C23.1707627,23.4358833 23.399506,23.5294118 23.6322825,23.5294118 C23.742909,23.5294118 23.855264,23.5083679 23.9618572,23.4639419 C24.2931604,23.3283257 24.5098039,23.0027299 24.5098039,22.6397227 L24.5098039,0.889689076 C24.5098039,0.398080329 24.1168495,0 23.6322825,0 C17.8105644,0 12.2976786,2.26631048 8.11000573,6.38156087 C7.94291367,6.54757381 7.84726786,6.77028836 7.84323461,7.00644762 C7.83977753,7.24260687 7.92850918,7.47233605 8.09099181,7.6406872 L23.0019421,23.2581794 Z M22.7541849,1.80042205 L22.7541849,20.4394667 L9.97452272,7.05613459 C13.5278219,3.84401798 18.0076178,2.00150815 22.7541849,1.80042205 Z" id="Shape" fill="#6D5CAE" fill-rule="nonzero"></path>
                        <path d="M23.5255871,28.0441492 C23.5495534,27.7917369 23.4601181,27.538751 23.2789092,27.3551785 L8.14972258,12.0291651 C7.98546551,11.8639498 7.76100033,11.7675742 7.52484426,11.7647059 C7.2886882,11.7670005 7.06071575,11.8496082 6.89178233,12.0108078 C2.44748877,16.2358448 0,21.9013527 0,27.9638362 C0,32.5956011 1.44382547,37.0363359 4.1730648,40.8064572 C4.34609004,41.0473961 4.62141061,41.1764706 4.90023844,41.1764706 C5.07735549,41.1764706 5.25797982,41.1236935 5.41405326,41.0158446 L23.1538166,28.6763272 C23.3665909,28.5288955 23.5022053,28.2988561 23.5255871,28.0441492 Z M5.12470362,39.0739912 C2.93382998,35.7587857 1.78052324,31.9381819 1.78052324,27.9638362 C1.78052324,22.6706364 3.80597071,17.7061462 7.50380065,13.8849689 L21.277428,27.8393511 L5.12470362,39.0739912 Z" id="Shape" fill="#6D5CAE" fill-rule="nonzero"></path>
                        <path d="M49.9982454,29.8371635 C49.9947362,28.8762963 49.925722,27.8780684 49.7935421,26.8705004 C49.7449982,26.500981 49.6865116,26.1337966 49.6215914,25.771866 C49.4753748,24.9744512 49.290557,24.1963005 49.0753262,23.4619317 C48.9811627,23.1373617 48.8782262,22.814543 48.7688561,22.4963944 C48.5337398,21.80464 48.2606072,21.1146368 47.959401,20.4509029 C47.8289758,20.1584396 47.6915322,19.8712302 47.5488247,19.5881071 C47.2370909,18.9687388 46.8920197,18.3534569 46.5200447,17.7551039 C46.3574518,17.4929961 46.1925195,17.2361422 46.0211536,16.9857096 C45.5965406,16.3616712 45.1368355,15.7533944 44.6537359,15.1760567 C44.4618997,14.9472232 44.2659694,14.720141 44.0636056,14.4959775 C43.619692,14.0050362 43.1412712,13.5211 42.6423802,13.0581792 C42.4236401,12.855031 42.2002211,12.6536342 41.973293,12.4598262 C41.4603651,12.0179207 40.9217031,11.5923604 40.3760227,11.2018256 C40.1274545,11.0220278 39.8771316,10.8463164 39.6250542,10.6828639 C39.030245,10.287659 38.4266629,9.92514471 37.8359477,9.60991486 C37.5593059,9.46047256 37.27857,9.31745161 36.9954947,9.17968449 C36.27143,8.82651031 35.5192918,8.50836166 34.7601351,8.23516246 C34.4460618,8.1207457 34.130234,8.01099901 33.810312,7.91234375 C33.0710408,7.68059143 32.3054507,7.48211338 31.5328421,7.32566597 C31.1772433,7.25327986 30.8187202,7.19023389 30.4555181,7.13185799 C29.6115558,7.00343101 28.7313318,6.91878596 27.8423349,6.88609546 C27.5346951,6.87442028 27.2264705,6.8627451 26.9164913,6.8627451 C26.1859931,6.8627451 25.5929385,7.45409295 25.5929385,8.18379167 L25.5929385,29.2195465 L8.4037138,41.3786623 C8.11712924,41.5800592 7.92002925,41.890619 7.86095774,42.2414581 C7.80422569,42.5876272 7.88376753,42.9332125 8.08788592,43.2233407 L8.17386128,43.3377575 C8.54759094,43.8543842 8.96226125,44.3756809 9.4424366,44.9320033 C9.63836686,45.1590855 9.83663658,45.3832489 10.0395852,45.6004073 C10.4846686,46.0773384 10.9706926,46.5519344 11.4853751,47.0148553 C11.7087941,47.2133334 11.9363071,47.4100601 12.1673293,47.6015331 C12.8030792,48.129835 13.394964,48.5764106 13.977491,48.9716154 C14.1909672,49.1140526 14.4091224,49.2500684 14.6266927,49.3831655 L14.7547785,49.4625567 C15.3530969,49.8344112 15.9683764,50.1776615 16.5900894,50.49114 C16.8743345,50.6335772 17.1591644,50.7713443 17.4463339,50.9003551 C18.0768199,51.1852295 18.7500012,51.4473372 19.5056486,51.7047749 C19.8244008,51.8145216 20.1449076,51.917847 20.467169,52.0112484 C21.2696058,52.244752 22.0234986,52.4274686 22.7773915,52.5652357 C23.1435179,52.6329517 23.5102291,52.6843225 23.8775252,52.7333583 C24.877062,52.8664553 25.8783533,52.9365064 26.829931,52.9388414 C26.8451376,52.9388414 26.9006999,52.9411765 26.9159064,52.9411765 C27.3329162,52.9411765 27.7464168,52.9295013 28.1558233,52.9061509 C29.2477689,52.8501101 30.3496573,52.712343 31.4310753,52.4946009 C31.9744163,52.3871892 32.5218513,52.2564272 33.105548,52.0923909 C34.7835298,51.627135 36.3995158,50.9774113 37.9084712,50.1566461 C39.4203509,49.335881 40.852104,48.3329831 42.1633745,47.1783078 C42.8985517,46.5332541 43.593373,45.838581 44.2261985,45.1188061 C45.3865735,43.8070997 46.3913741,42.3786415 47.2119417,40.870792 C48.0301698,39.3699477 48.6822959,37.7587729 49.1513588,36.0781308 C49.3151214,35.486783 49.4478861,34.9415521 49.5543318,34.4062451 C49.7683929,33.330961 49.9070062,32.2323266 49.9672475,31.1354435 C49.9877178,30.7262285 50,30.3146784 50,29.901377 L49.9982454,29.8371635 Z M48.186914,31.0432096 C48.1319366,32.0531126 48.0038508,33.0676857 47.806166,34.0589085 C47.7079084,34.5498498 47.5862562,35.0571363 47.4341909,35.6041185 C47.0013898,37.1516636 46.4001471,38.6384977 45.6450845,40.0225902 C44.8888522,41.4113528 43.961254,42.7300644 42.8886089,43.9431155 C42.3031576,44.6068495 41.6627289,45.2478169 40.9825292,45.8461698 C39.7706859,46.9144488 38.4500575,47.8379555 37.0557359,48.5956746 C35.6655084,49.350475 34.1752687,49.9517467 32.6259575,50.3796421 C32.0855409,50.5314194 31.5802163,50.653425 31.0813252,50.7538316 C30.0841279,50.9505583 29.06763,51.0789853 28.0599052,51.1326911 C27.6814966,51.1513714 27.3019183,51.1677167 26.9188307,51.1630466 C26.9053788,51.1630466 26.8714566,51.1607116 26.8580046,51.1607116 C25.9608195,51.1583765 25.0373154,51.0953306 24.1126416,50.9715737 C23.7716644,50.927208 23.4330268,50.8781722 23.0978983,50.8174613 C22.4083407,50.6913694 21.7111799,50.522663 20.9660601,50.3055047 C20.6666085,50.2191083 20.3706661,50.1210368 20.077648,50.0229653 C19.3787326,49.7847917 18.7576044,49.5436992 18.1780018,49.2815914 C17.9089632,49.1601696 17.6451884,49.0317426 17.3872623,48.9027318 C16.8181873,48.6155224 16.2479425,48.2973738 15.6934891,47.9535397 L15.562479,47.8718135 C15.3636245,47.7503916 15.1665245,47.628386 14.9752731,47.499959 C14.4418749,47.1374447 13.8950248,46.7235596 13.3060643,46.2372883 C13.0937578,46.0598256 12.882621,45.877109 12.6755783,45.6926412 C12.2000819,45.2670809 11.7520742,44.8275104 11.3403282,44.3856049 C11.1514163,44.184208 10.9683531,43.9763898 10.789384,43.7709066 C10.4273517,43.3523515 10.1068449,42.9548116 9.81324192,42.5625256 L26.9977877,30.4057448 C27.2334889,30.2399572 27.373272,29.9685093 27.373272,29.6812999 L27.373272,8.64904758 C27.5060367,8.65138261 27.6388013,8.65838772 27.771566,8.66305779 C28.595058,8.69341326 29.4056829,8.77046945 30.1818006,8.88955628 C30.5163442,8.94092707 30.8485484,9.001638 31.1766584,9.06701901 C31.8872712,9.21412627 32.5937898,9.3945078 33.2780836,9.6093311 C33.5716865,9.7003975 33.86295,9.80080405 34.151874,9.90588066 C34.8519592,10.1586483 35.5461956,10.4505278 36.2123585,10.7756815 C36.4737938,10.9041085 36.7334745,11.0354543 36.9902309,11.1755564 C37.5341567,11.4656847 38.0880252,11.7972598 38.640724,12.1644442 C38.8740857,12.3185565 39.1027685,12.4779227 39.3314512,12.6437103 C39.8373607,13.0062246 40.3339123,13.3967594 40.808239,13.8053907 C41.0176212,13.9851884 41.2252488,14.17024 41.4276126,14.3593779 C41.8884873,14.7872733 42.3300615,15.2338489 42.739468,15.6850946 C42.9248707,15.8934965 43.1067641,16.1013147 43.2845635,16.313803 C43.7302317,16.8467749 44.1554296,17.4101024 44.5472902,17.985105 C44.7069587,18.2186085 44.8584391,18.457366 45.0064103,18.6937884 C45.3491421,19.2454406 45.6678943,19.8134381 45.9550637,20.3837706 C46.0860738,20.6458784 46.2124049,20.9074024 46.3340571,21.1788503 C46.6124536,21.7958836 46.8639461,22.4298458 47.0809316,23.0678944 C47.1809438,23.3603576 47.2751072,23.6569072 47.3634221,23.9587106 C47.5628615,24.6364548 47.7330577,25.3544783 47.8669921,26.0882634 C47.9284031,26.4250923 47.9816259,26.7613375 48.0266606,27.1005014 C48.1488977,28.0333483 48.213233,28.956855 48.2155725,29.8406661 L48.2161574,29.901377 C48.2173271,30.2854904 48.2062146,30.666685 48.186914,31.0432096 Z" id="Shape" fill="#6D5CAE" fill-rule="nonzero"></path>
                    </g>
                </g>
            </g>
        </g>
    </g>
</svg>

<?xml version="1.0" encoding="UTF-8" standalone="no"?>
<svg xmlns="http://www.w3.org/2000/svg" height="53px" width="50px" version="1.1" xmlns:xlink="http://www.w3.org/1999/xlink" viewBox="0 0 50 53"><!-- Generator: Sketch 52.3 (67297) - http://www.bohemiancoding.com/sketch -->
 <title>chart-icon</title>
 <desc>Created with Sketch.</desc>
 <g id="Temporary-Homepage-(Instapage)" fill-rule="evenodd" fill="none">
  <g id="Insta" transform="translate(-340 -1125)">
   <g id="Group-3" transform="translate(255 1125)">
    <g id="Group-34">
     <g id="chart-icon" transform="translate(85)">
      <path id="Path" d="m22.549 1.9608c-4.733 0.2015-9.201 2.0422-12.745 5.2523l12.745 13.375v-18.627z"/>
      <path id="Path" d="m1.9608 26.992c0 4.022 1.1599 7.888 3.3632 11.243l16.245-11.369-13.852-14.121c-3.7192 3.866-5.7562 8.891-5.7562 14.247z"/>
      <path id="Path" d="m47.849 26.14c-0.044-0.336-0.097-0.67-0.159-1.004-0.133-0.727-0.302-1.439-0.501-2.111-0.087-0.3-0.182-0.594-0.281-0.884-0.216-0.633-0.467-1.261-0.744-1.873-0.121-0.269-0.247-0.529-0.377-0.788-0.285-0.566-0.603-1.129-0.945-1.676-0.147-0.235-0.297-0.471-0.457-0.703-0.39-0.57-0.813-1.129-1.257-1.657-0.177-0.211-0.358-0.418-0.543-0.624-0.407-0.447-0.847-0.89-1.306-1.314-0.201-0.188-0.408-0.371-0.616-0.55-0.473-0.406-0.967-0.793-1.471-1.152-0.227-0.164-0.455-0.322-0.687-0.475-0.551-0.364-1.102-0.693-1.644-0.981-0.255-0.138-0.514-0.269-0.774-0.396-0.663-0.3225-1.354-0.6119-2.051-0.8626-0.288-0.1042-0.578-0.2037-0.87-0.294-0.682-0.213-1.385-0.3919-2.093-0.5378-0.326-0.0648-0.657-0.125-0.99-0.176-0.773-0.1181-1.58-0.195-2.4-0.2246-0.132-0.0046-0.263-0.0115-0.396-0.0139v20.855c0 0.285-0.139 0.554-0.374 0.718l-17.109 12.055c0.292 0.389 0.611 0.784 0.972 1.198 0.178 0.204 0.36 0.41 0.548 0.61 0.41 0.438 0.856 0.874 1.33 1.296 0.206 0.183 0.416 0.364 0.627 0.54 0.587 0.482 1.131 0.892 1.662 1.252 0.191 0.127 0.387 0.248 0.585 0.369l0.13 0.081c0.552 0.341 1.119 0.655 1.687 0.941 0.256 0.127 0.519 0.255 0.787 0.376 0.577 0.259 1.195 0.498 1.891 0.735 0.292 0.097 0.587 0.195 0.885 0.28 0.742 0.216 1.435 0.382 2.122 0.508 0.334 0.06 0.671 0.108 1.01 0.152 0.921 0.123 1.841 0.186 2.734 0.188 0.013 0 0.047 0.002 0.06 0.002 0.382 0.005 0.76-0.011 1.136-0.03 1.004-0.053 2.016-0.181 3.009-0.376 0.496-0.099 0.999-0.22 1.537-0.371 1.543-0.424 3.027-1.02 4.411-1.769 1.388-0.751 2.703-1.666 3.909-2.726 0.677-0.593 1.314-1.228 1.898-1.887 1.068-1.203 1.991-2.511 2.744-3.888 0.752-1.372 1.351-2.847 1.782-4.381 0.15-0.543 0.271-1.046 0.37-1.533 0.196-0.983 0.324-1.989 0.379-2.99 0.019-0.373 0.03-0.751 0.03-1.131v-0.06c-0.004-0.876-0.067-1.792-0.19-2.717z"/>
      <path id="Shape" fill-rule="nonzero" fill="#6D5CAE" d="m23.002 23.258c0.169 0.178 0.398 0.271 0.63 0.271 0.111 0 0.223-0.021 0.33-0.065 0.331-0.136 0.548-0.461 0.548-0.824v-21.75c0-0.49192-0.393-0.89-0.878-0.89-5.821 0-11.334 2.2663-15.522 6.3816-0.1671 0.166-0.2627 0.3887-0.2668 0.6248-0.0034 0.2362 0.0853 0.4659 0.2478 0.6343l14.911 15.617zm-0.248-21.458v18.639l-12.78-13.383c3.554-3.212 8.034-5.0545 12.78-5.2556z"/>
      <path id="Shape" fill-rule="nonzero" fill="#6D5CAE" d="m23.526 28.044c0.024-0.252-0.066-0.505-0.247-0.689l-15.129-15.326c-0.1645-0.165-0.389-0.261-0.6252-0.264-0.2361 0.002-0.4641 0.085-0.633 0.246-4.4443 4.225-6.8918 9.89-6.8918 15.953 0 4.632 1.4438 9.072 4.1731 12.842 0.173 0.241 0.4483 0.37 0.7271 0.37 0.1772 0 0.3578-0.052 0.5139-0.16l17.74-12.34c0.213-0.147 0.348-0.377 0.372-0.632zm-18.401 11.03c-2.1909-3.315-3.3442-7.136-3.3442-11.11 0-5.293 2.0255-10.258 5.7233-14.079l13.773 13.954-16.152 11.235z"/>
      <path id="Shape" fill-rule="nonzero" fill="#6D5CAE" d="m49.998 29.837c-0.003-0.961-0.072-1.959-0.204-2.966-0.049-0.37-0.107-0.737-0.172-1.099-0.147-0.798-0.331-1.576-0.547-2.31-0.094-0.325-0.197-0.647-0.306-0.966-0.235-0.691-0.508-1.381-0.81-2.045-0.13-0.293-0.267-0.58-0.41-0.863-0.312-0.619-0.657-1.235-1.029-1.833-0.163-0.262-0.327-0.519-0.499-0.769-0.424-0.624-0.884-1.233-1.367-1.81-0.192-0.229-0.388-0.456-0.59-0.68-0.444-0.491-0.923-0.975-1.422-1.438-0.218-0.203-0.442-0.404-0.669-0.598-0.513-0.442-1.051-0.868-1.597-1.258-0.249-0.18-0.499-0.356-0.751-0.519-0.595-0.395-1.198-0.7579-1.789-1.0731-0.277-0.1494-0.557-0.2924-0.841-0.4302-0.724-0.3532-1.476-0.6713-2.235-0.9445-0.314-0.1145-0.63-0.2242-0.95-0.3229-0.739-0.2317-1.505-0.4302-2.277-0.5866-0.356-0.0724-0.714-0.1355-1.077-0.1938-0.844-0.1285-1.725-0.2131-2.614-0.2458-0.307-0.0117-0.616-0.0234-0.926-0.0234-0.73 0-1.323 0.5914-1.323 1.3211v21.036l-17.189 12.159c-0.2869 0.201-0.484 0.512-0.543 0.862-0.0568 0.347 0.0228 0.692 0.2269 0.982l0.086 0.115c0.3737 0.516 0.7884 1.038 1.2685 1.594 0.196 0.227 0.3942 0.451 0.5976 0.668 0.445 0.477 0.931 0.952 1.445 1.415 0.224 0.198 0.451 0.395 0.682 0.587 0.636 0.528 1.228 0.974 1.81 1.37 0.214 0.142 0.432 0.278 0.65 0.411l0.128 0.08c0.598 0.371 1.213 0.715 1.835 1.028 0.284 0.143 0.569 0.28 0.856 0.409 0.631 0.285 1.304 0.547 2.06 0.805 0.318 0.11 0.639 0.213 0.961 0.306 0.803 0.234 1.556 0.416 2.31 0.554 0.367 0.068 0.733 0.119 1.101 0.168 0.999 0.133 2 0.204 2.952 0.206 0.015 0 0.071 0.002 0.086 0.002 0.417 0 0.83-0.011 1.24-0.035 1.092-0.056 2.194-0.194 3.275-0.411 0.543-0.108 1.091-0.239 1.675-0.403 1.678-0.465 3.294-1.115 4.802-1.935 1.512-0.821 2.944-1.824 4.255-2.979 0.736-0.645 1.43-1.339 2.063-2.059 1.161-1.312 2.165-2.74 2.986-4.248 0.818-1.501 1.47-3.112 1.939-4.793 0.164-0.591 0.297-1.136 0.403-1.672 0.214-1.075 0.353-2.174 0.413-3.271 0.021-0.409 0.033-0.82 0.033-1.234l-0.002-0.064zm-1.811 1.206c-0.055 1.01-0.183 2.025-0.381 3.016-0.098 0.491-0.22 0.998-0.372 1.545-0.433 1.548-1.034 3.034-1.789 4.419-0.756 1.388-1.684 2.707-2.756 3.92-0.586 0.664-1.226 1.305-1.906 1.903-1.212 1.068-2.533 1.992-3.927 2.75-1.39 0.754-2.881 1.356-4.43 1.784-0.54 0.151-1.046 0.273-1.545 0.374-0.997 0.197-2.013 0.325-3.021 0.379-0.379 0.018-0.758 0.035-1.141 0.03-0.014 0-0.048-0.002-0.061-0.002-0.897-0.003-1.821-0.066-2.745-0.189-0.341-0.045-0.68-0.094-1.015-0.155-0.69-0.126-1.387-0.294-2.132-0.511-0.299-0.087-0.595-0.185-0.888-0.283-0.699-0.238-1.32-0.479-1.9-0.741-0.269-0.122-0.533-0.25-0.791-0.379-0.569-0.287-1.139-0.606-1.694-0.949l-0.131-0.082c-0.198-0.122-0.395-0.244-0.587-0.372-0.533-0.363-1.08-0.776-1.669-1.263-0.212-0.177-0.423-0.36-0.63-0.544-0.476-0.426-0.924-0.865-1.336-1.307-0.189-0.202-0.372-0.41-0.551-0.615-0.362-0.419-0.682-0.816-0.9758-1.208l17.185-12.157c0.235-0.166 0.375-0.437 0.375-0.725v-21.032c0.133 0.0024 0.266 0.0094 0.399 0.0141 0.823 0.0303 1.634 0.1074 2.41 0.2265 0.334 0.0513 0.667 0.112 0.995 0.1774 0.71 0.1471 1.417 0.3275 2.101 0.5423 0.294 0.0911 0.585 0.1915 0.874 0.2966 0.7 0.2531 1.394 0.5451 2.06 0.8701 0.262 0.128 0.521 0.259 0.778 0.4 0.544 0.29 1.098 0.621 1.651 0.988 0.233 0.155 0.462 0.314 0.69 0.48 0.506 0.362 1.003 0.753 1.477 1.161 0.21 0.18 0.417 0.365 0.62 0.554 0.46 0.428 0.902 0.875 1.311 1.326 0.186 0.208 0.368 0.416 0.546 0.629 0.445 0.533 0.87 1.096 1.262 1.671 0.16 0.234 0.311 0.472 0.459 0.709 0.343 0.551 0.662 1.119 0.949 1.69 0.131 0.262 0.257 0.523 0.379 0.795 0.278 0.617 0.53 1.251 0.747 1.889 0.1 0.292 0.194 0.589 0.282 0.891 0.2 0.677 0.37 1.395 0.504 2.129 0.061 0.337 0.115 0.673 0.16 1.013 0.122 0.932 0.186 1.856 0.189 2.74v0.06c0.001 0.384-0.01 0.766-0.029 1.142z"/>
     </g>
    </g>
   </g>
  </g>
 </g>
</svg>
